src/assets/github-logo.svg

<?xml version="1.0" encoding="UTF-8" standalone="no"?>
<!-- Uploaded to: SVG Repo, www.svgrepo.com, Generator: SVG Repo Mixer Tools -->

<svg
	width="800px"
	height="800px"
	viewBox="0 0 20 20"
	version="1.1"
	id="svg1"
	sodipodi:docname="github-logo.svg"
	inkscape:version="1.4.2 (f4327f4, 2025-05-13)"
	xmlns:inkscape="http://www.inkscape.org/namespaces/inkscape"
	xmlns:sodipodi="http://sodipodi.sourceforge.net/DTD/sodipodi-0.dtd"
	xmlns="http://www.w3.org/2000/svg"
	xmlns:svg="http://www.w3.org/2000/svg"
>
	<sodipodi:namedview
		id="namedview1"
		pagecolor="#505050"
		bordercolor="#ffffff"
		borderopacity="1"
		inkscape:showpageshadow="0"
		inkscape:pageopacity="0"
		inkscape:pagecheckerboard="1"
		inkscape:deskcolor="#505050"
		inkscape:zoom="0.708125"
		inkscape:cx="385.52515"
		inkscape:cy="420.12357"
		inkscape:window-width="2560"
		inkscape:window-height="1351"
		inkscape:window-x="2991"
		inkscape:window-y="115"
		inkscape:window-maximized="1"
		inkscape:current-layer="svg1"
	/>
	<title id="title1">github [#142]</title>
	<desc id="desc1">Created with Sketch.</desc>
	<defs id="defs1" />
	<ellipse
		style="
			display: inline;
			overflow: hidden;
			fill: #ffffff;
			fill-opacity: 1;
			stroke-width: 0.024298;
		"
		id="path1"
		ry="9.873826"
		rx="9.7238274"
		cy="10"
		cx="10"
	/>
	<g
		id="Page-1"
		stroke="none"
		stroke-width="1"
		fill="none"
		fill-rule="evenodd"
		transform="matrix(0.92648193,0,0,0.92648193,0.7351807,0.48514636)"
	>
		<g
			id="Dribbble-Light-Preview"
			transform="translate(-140,-7559)"
			fill="#000000"
		>
			<g id="icons" transform="translate(56,160)">
				<path
					d="m 94,7399 c 5.523,0 10,4.59 10,10.253 0,4.529 -2.862,8.371 -6.833,9.728 -0.507,0.101 -0.687,-0.219 -0.687,-0.492 0,-0.338 0.012,-1.442 0.012,-2.814 0,-0.956 -0.32,-1.58 -0.679,-1.898 2.227,-0.254 4.567,-1.121 4.567,-5.059 0,-1.12 -0.388,-2.034 -1.03,-2.752 0.104,-0.259 0.447,-1.302 -0.098,-2.714 0,0 -0.838,-0.275 -2.747,1.051 -0.799,-0.227 -1.655,-0.341 -2.505,-0.345 -0.85,0 -1.705,0.118 -2.503,0.345 -1.911,-1.326 -2.751,-1.051 -2.751,-1.051 -0.543,1.412 -0.2,2.455 -0.097,2.714 -0.639,0.718 -1.03,1.632 -1.03,2.752 0,3.928 2.335,4.808 4.556,5.067 -0.286,0.256 -0.545,0.708 -0.635,1.371 -0.57,0.262 -2.018,0.715 -2.91,-0.852 0,0 -0.529,-0.985 -1.533,-1.057 0,0 -0.975,-0.013 -0.068,0.623 0,0 0.655,0.315 1.11,1.5 0,0 0.587,1.83 3.369,1.21 0.005,0.857 0.014,1.665 0.014,1.909 0,0.271 -0.184,0.588 -0.683,0.493 C 86.865,7417.627 84,7413.783 84,7409.253 84,7403.59 88.478,7399 94,7399"
					id="github-[#142]"
				/>
			</g>
		</g>
	</g>
</svg>

<?xml version="1.0" encoding="UTF-8" standalone="no"?>
<!-- Uploaded to: SVG Repo, www.svgrepo.com, Generator: SVG Repo Mixer Tools -->
<svg width="800px" height="800px" viewBox="0 0 20 20" version="1.1" xmlns="http://www.w3.org/2000/svg" xmlns:xlink="http://www.w3.org/1999/xlink">
    
    <title>github [#142]</title>
    <desc>Created with Sketch.</desc>
    <defs>

</defs>
    <g id="Page-1" stroke="none" stroke-width="1" fill="none" fill-rule="evenodd">
        <g id="Dribbble-Light-Preview" transform="translate(-140.000000, -7559.000000)" fill="#000000">
            <g id="icons" transform="translate(56.000000, 160.000000)">
                <path d="M94,7399 C99.523,7399 104,7403.59 104,7409.253 C104,7413.782 101.138,7417.624 97.167,7418.981 C96.66,7419.082 96.48,7418.762 96.48,7418.489 C96.48,7418.151 96.492,7417.047 96.492,7415.675 C96.492,7414.719 96.172,7414.095 95.813,7413.777 C98.04,7413.523 100.38,7412.656 100.38,7408.718 C100.38,7407.598 99.992,7406.684 99.35,7405.966 C99.454,7405.707 99.797,7404.664 99.252,7403.252 C99.252,7403.252 98.414,7402.977 96.505,7404.303 C95.706,7404.076 94.85,7403.962 94,7403.958 C93.15,7403.962 92.295,7404.076 91.497,7404.303 C89.586,7402.977 88.746,7403.252 88.746,7403.252 C88.203,7404.664 88.546,7405.707 88.649,7405.966 C88.01,7406.684 87.619,7407.598 87.619,7408.718 C87.619,7412.646 89.954,7413.526 92.175,7413.785 C91.889,7414.041 91.63,7414.493 91.54,7415.156 C90.97,7415.418 89.522,7415.871 88.63,7414.304 C88.63,7414.304 88.101,7413.319 87.097,7413.247 C87.097,7413.247 86.122,7413.234 87.029,7413.87 C87.029,7413.87 87.684,7414.185 88.139,7415.37 C88.139,7415.37 88.726,7417.2 91.508,7416.58 C91.513,7417.437 91.522,7418.245 91.522,7418.489 C91.522,7418.76 91.338,7419.077 90.839,7418.982 C86.865,7417.627 84,7413.783 84,7409.253 C84,7403.59 88.478,7399 94,7399" id="github-[#142]">

</path>
            </g>
        </g>
    </g>
</svg>
